X:1
T:As for Me and My House
T:As for Me and My House
T:Scott Werdebaugh, 1995
T:Scott Werdebaugh, 1995
T:© 1995 Scott Werdebaugh &amp; New Heart Music - May be freely copied &amp; used for Christian worship or devotions with no alterations. All other rights reserved.
T:© 1995 Scott Werdebaugh &amp; New Heart Music - May be freely copied &amp; used for Christian worship or devotions with no alterations. All other rights reserved.
C:Scott Werdebaugh, 1995
Z:© 1995 Scott Werdebaugh & New Heart Music - May be freely copied & used for
Z:Christian worship or devotions with no alterations. All other rights reserved.
%%score ( 1 2 ) ( 3 4 )
L:1/8
Q:1/4=100
M:4/4
K:F
V:1 treble 
V:2 treble 
V:3 bass 
V:4 bass 
V:1
"^Lively, but Worshipful"!f! C[B,D] |: [CF] [CF]2 [B,D] [DF]3 z | [FA]3 [FA] [EA]<[EG] [CF]2 | %3
w: 1.~As for|me and my house,|we will serve You, Lord,|
w: 2.~(As for)|me and my house,|we will serve You, Lord,|
w: 3.~(As for)|me and my house,|we will serve You, Lord,|
 [B,D]3 [DF] [EG] [CE]2 [B,D] | C4 z2 C[B,D] | [CF] [CF]2 [B,D] [DF]4 | %6
w: All the days of our|lives. As for|me and my house,|
w: All the days of our|lives. As for|me and my house,|
w: All the days of our|lives. As for|me and my house,|
 [FA]3 [FA] [EA]/ [EG]3/2 [DF][DG] | [FA]3 [CF] ([CA] [EG]2) [DF] | [CF]4 z2!ff! [FA][Ac] | %9
w: we will serve You, Lord; Yes,|we will serve * You,|Lord! For, Lord|
w: we will serve You, Lord; Yes,|we will serve * You,|Lord! O Lord|
w: we will serve You, Lord; Yes,|we will serve * You,|Lord! For, O|
 [Gc]4- [Gc]2 [Ec]->[Ec] x2 | [FB]>[FB] [FA][EG] [FA] z [FA][Ac] | [Gc]4- [Gc]2 [EG]2 x2 | %12
w: God, * we *|love and hon- or You; You a-|lone * are|
w: God, * the~Be- *|gin- ning and the End! Your great|love * has|
w: Lord, * we~ex- *|alt and praise Your Name; And with|all * our|
 [FB]>[FB] [FA][EG] [FA] z [FA][EG] | [DF]3 [DA] [EG]2 ([DF][EG]) | [FA]4 z2!f! [FA][EG] | %15
w: wor- thy to be praised! Ho- ly|God, we wor- ship *|You; Yes, we’ve|
w: saved us from our sin! Lord, we|bless Your Ho- ly *|Name! Yes, we|
w: heart, soul, mind, and strength, We \-|love You, O Lord *|God! Yes, we|
 [DF]3 [DA] [EG]2 ([DF][CE]) |1,2 [CF]4 z2 C[B,D] :|3 [CF]4 z2 [FA][Ac] || [Gc]4- [Gc]2 [Ec]2 x2 | %19
w: come to wor- ship *|You! As for|||
w: bless Your Ho- ly *|Name! As for|||
w: love You, our Lord *|~~ ~~ ~~|God! For, Lord|God, * I|
 [FB]>[FB] [FA][EG] [FA] z [FA][Ac] | [Gc]4- [Gc]2 [EG]2 x2 | [FB]>[FB] [FA][EG] [FA] z [FA][EG] | %22
w: |||
w: |||
w: love and hon- or You; You a-|lone * are|wor- thy of my praise! Ho- ly|
 [DF]3 [FA] [EG]2 ([DF][EG]) | [FA]4 z2!mf! [FA][EG] | [DF]3 [FA] [EG]2 ([DF][CE]) | %25
w: |||
w: |||
w: God, I wor- ship *|You; Lord, I’m|here to wor- ship *|
"^rit." [CF]4 z2"^Opt. Tag Ending"!mp! [FA][EG] | [DF]3 [FA] [EG]2 ([DF][CE]) | %27
w: ||
w: ||
w: You! Lord, I’m|here to wor- ship *|
"^rit."[Q:1/4=60] [CF]4 z2 |] %28
w: |
w: |
w: You!|
V:2
 x2 |: x8 | x8 | x8 | C4 x4 | x8 | x8 | x8 | x8 | x10 | x8 | x10 | x8 | x8 | x8 | x8 |1,2 x8 :|3 %17
 x8 || x10 | x8 | x10 | x8 | x8 | x8 | x8 | x8 | x8 | x6 |] %28
V:3
 [C,G,][C,G,] |: [F,A,] [F,A,]2 [D,F,] [B,,F,]3 z | [C,A,]3 [C,A,] [C,G,]<[C,G,] [F,A,]2 | %3
 [B,,F,]3 [B,,B,] [C,C] [C,G,]2 [B,,F,] | [F,A,]4 z2 [E,G,][B,,F,] | %5
 [F,A,] [F,A,]2 [B,,F,] [B,,B,]4 | [F,C]3 [F,C] [A,^C]/ [A,C]3/2 [D,A,][G,B,] | %7
 [F,C]3 [F,A,] ([E,G,] [C,G,]2) [B,,B,] | [F,A,]4 z2 [C,F,][A,,F,] | %9
 C4- ([D,F,]2 C2) [C,G,]->[C,G,] | [D,B,]>[D,B,] [F,C][E,C] [F,C] z [A,C][F,A,] | %11
 C4- ([D,F,]2 C2) [C,C]2 | [D,B,]>[D,B,] [F,C][E,C] [F,C] z [F,C][C,B,] | %13
 [B,,F,]3 [D,F,] [C,B,]2 ([D,A,][C,C]) | [F,C]4 z2 [F,C][C,B,] | %15
 [B,,B,]3 [D,F,] [C,B,]2 ([C,A,][C,G,]) |1,2 [F,A,]4 z2 [C,G,][C,G,] :|3 %17
 [F,A,]4 z2 [C,F,][A,,F,] || C4- ([D,F,]2 C2) [C,G,]2 | %19
 [D,B,]>[D,B,] [F,C][E,C] [F,C] z [A,C][F,A,] | C4- ([D,F,]2 C2) [C,C]2 | %21
 [D,B,]>[D,B,] [F,C][E,C] [F,C] z [F,C][C,B,] | [B,,F,]3 [D,F,] [C,B,]2 ([D,A,][C,C]) | %23
 [F,C]4 z2 [F,C][C,B,] | [B,,B,]3 [D,F,] [C,B,]2 ([C,A,][C,G,]) | [F,A,]4 z2 [F,C][C,B,] | %26
 [B,,B,]3 [D,F,] [C,B,]2 ([C,A,][C,G,]) | [F,A,]4 z2 |] %28
V:4
 x2 |: x8 | x8 | x8 | x8 | x8 | x8 | x8 | x8 | ([C,E,]2 [E,G,]2) x6 | x8 | ([E,G,]2 [C,E,]2) x6 | %12
 x8 | x8 | x8 | x8 |1,2 x8 :|3 x8 || ([C,E,]2 [E,G,]2) x6 | x8 | ([E,G,]2 [C,E,]2) x6 | x8 | x8 | %23
 x8 | x8 | x8 | x8 | x6 |] %28

